X: 11161
Q: "Andantino"
M: 3/4
L: 1/16
K: G
V: 1
|:\
!p!d4 !f!d3B e3d | d6 "_cres"ef g2g2 | {a/}g2 f4 e2d2c2 | c3d B4 z4 |\
!p!cBAG "_cres"FGAB !f!c4 | !p!dcBA "_cres"GABc !f!d4 | d3e/f/ g2d2c2B2 | !p!B8 A4 :|
|:\
!f!c'6 ag {g/}f2ed | g2ga b2bc' d'4 | !f!c'6 ag {g/}f2ed | g2ga b2bc' d'4 |\
e6 fg abc'e | d6 ef gabd | {f/}e2dc B4 TA3G/A/ | G4 G4 z4 :|
V: 2
|:\
{f/}e2 d4 c2B2A2 | A3B G4 z4 | AGFE DEFG A4 |
|:\
!f!DFAF DFAF DAdA | B2z2 g2ga b4 | DFAF DFAF DAcA |
{d/}c2BA G4 TF3E/F/ | G4 G4 z4 :|



